packages/ffe-icons/icons/open/400/sm/jump_to_element.svg

<svg xmlns="http://www.w3.org/2000/svg" height="20" viewBox="0 -960 960 960" width="20"><path d="M503.767-504h36.116q15.35 0 25.734 10.35Q576-483.3 576-468q0 15.3-10.325 25.65Q555.35-432 540.088-432h-71.825Q453-432 442.5-442.325 432-452.65 432-467.912v-71.825Q432-555 442.289-565.5q10.29-10.5 25.5-10.5 15.211 0 25.594 10.35 10.384 10.35 10.384 25.65v36Zm288.233.233v-36.116q0-15.35 10.35-25.734Q812.7-576 828-576q15.3 0 25.65 10.325Q864-555.35 864-540.088v71.825Q864-453 853.675-442.5 843.35-432 828.088-432h-71.825Q741-432 730.5-442.289q-10.5-10.29-10.5-25.5 0-15.211 10.35-25.594 10.35-10.384 25.65-10.384h36ZM504-792.233v36.116q0 15.35-10.35 25.734Q483.3-720 468-720q-15.3 0-25.65-10.325Q432-740.65 432-755.912v-71.825Q432-843 442.325-853.5 452.65-864 467.912-864h71.825Q555-864 565.5-853.711q10.5 10.29 10.5 25.5 0 15.211-10.35 25.594-10.35 10.384-25.65 10.384h-36Zm288.233.233h-36.116q-15.35 0-25.734-10.35Q720-812.7 720-828q0-15.3 10.325-25.65Q740.65-864 755.912-864h71.825Q843-864 853.5-853.675 864-843.35 864-828.088v71.825Q864-741 853.711-730.5q-10.29 10.5-25.5 10.5-15.211 0-25.594-10.35-10.384-10.35-10.384-25.65v-36ZM360-309 172-121q-11 11-25 10.5T122-122q-11-11-11-25.5t11-25.5l187-187H179.87q-15.245 0-25.558-10.289Q144-380.579 144-395.789 144-411 154.338-421.5 164.677-432 179.96-432h215.757Q411-432 421.5-421.662 432-411.323 432-396.04v215.757Q432-165 421.711-154.5q-10.29 10.5-25.5 10.5Q381-144 370.5-154.312 360-164.625 360-179.87V-309Z"/></svg>

<svg xmlns="http://www.w3.org/2000/svg" height="20" viewBox="0 -960 960 960" width="20"><path d="M503.77-504h36.11q15.35 0 25.74 10.35Q576-483.3 576-468q0 15.3-10.32 25.65Q555.35-432 540.09-432h-71.83q-15.26 0-25.76-10.32-10.5-10.33-10.5-25.59v-71.83q0-15.26 10.29-25.76 10.29-10.5 25.5-10.5t25.59 10.35q10.39 10.35 10.39 25.65v36Zm288.23.23v-36.11q0-15.35 10.35-25.74Q812.7-576 828-576q15.3 0 25.65 10.32Q864-555.35 864-540.09v71.83q0 15.26-10.32 25.76-10.33 10.5-25.59 10.5h-71.83q-15.26 0-25.76-10.29-10.5-10.29-10.5-25.5t10.35-25.59q10.35-10.39 25.65-10.39h36ZM504-792.23v36.11q0 15.35-10.35 25.74Q483.3-720 468-720q-15.3 0-25.65-10.32Q432-740.65 432-755.91v-71.83q0-15.26 10.32-25.76 10.33-10.5 25.59-10.5h71.83q15.26 0 25.76 10.29 10.5 10.29 10.5 25.5t-10.35 25.59Q555.3-792.23 540-792.23h-36Zm288.23.23h-36.11q-15.35 0-25.74-10.35Q720-812.7 720-828q0-15.3 10.32-25.65Q740.65-864 755.91-864h71.83q15.26 0 25.76 10.32 10.5 10.33 10.5 25.59v71.83q0 15.26-10.29 25.76-10.29 10.5-25.5 10.5t-25.59-10.35Q792.23-740.7 792.23-756v-36ZM360-309 172-121q-11 11-25 10.5T122-122q-11-11-11-25.5t11-25.5l187-187H179.87q-15.24 0-25.56-10.29Q144-380.58 144-395.79t10.34-25.71q10.34-10.5 25.62-10.5h215.76q15.28 0 25.78 10.34 10.5 10.34 10.5 25.62v215.76q0 15.28-10.29 25.78-10.29 10.5-25.5 10.5t-25.71-10.31Q360-164.63 360-179.87V-309Z"/></svg>
